content/fr/images/duke/clock-o.svg

<svg height="1000" width="857.1" xmlns="http://www.w3.org/2000/svg"><path d="m500 303.6v250c0 10-7.8 17.8-17.9 17.8h-178.5c-10.1 0-17.9-7.8-17.9-17.8v-35.7c0-10.1 7.8-17.9 17.9-17.9h125v-196.4c0-10.1 7.8-17.9 17.8-17.9h35.7c10.1 0 17.9 7.8 17.9 17.9z m232.1 196.4c0-167.4-136.1-303.6-303.5-303.6s-303.6 136.2-303.6 303.6 136.2 303.6 303.6 303.6 303.5-136.2 303.5-303.6z m125 0c0 236.6-191.9 428.6-428.5 428.6s-428.6-192-428.6-428.6 192-428.6 428.6-428.6 428.5 192 428.5 428.6z" /></svg>

<?xml version="1.0" encoding="utf-8"?>
<!-- Generator: Adobe Illustrator 24.3.0, SVG Export Plug-In . SVG Version: 6.00 Build 0)  -->
<svg version="1.1" id="Calque_1" xmlns="http://www.w3.org/2000/svg" xmlns:xlink="http://www.w3.org/1999/xlink" x="0px" y="0px"
	 viewBox="0 0 857.1 1000" style="enable-background:new 0 0 857.1 1000;" xml:space="preserve">
<style type="text/css">
	.st0{fill:#333333;}
</style>
<path class="st0" d="M500,303.6v250c0,10-7.8,17.8-17.9,17.8H303.6c-10.1,0-17.9-7.8-17.9-17.8v-35.7c0-10.1,7.8-17.9,17.9-17.9h125
	V303.6c0-10.1,7.8-17.9,17.8-17.9h35.7C492.2,285.7,500,293.5,500,303.6L500,303.6z M732.1,500c0-167.4-136.1-303.6-303.5-303.6
	S125,332.6,125,500s136.2,303.6,303.6,303.6S732.1,667.4,732.1,500L732.1,500z M857.1,500c0,236.6-191.9,428.6-428.5,428.6
	S0,736.6,0,500S192,71.4,428.6,71.4S857.1,263.4,857.1,500L857.1,500z"/>
</svg>
